X:1
T:Vuoma-Pertin Masurkka Medley
Z:Dick Atlee
F:http:dickatlee.com/music/finnish/abc/vuoma-pertin_masurkka.abc 2013-6-10
M:3/4
L:1/8
%Q:1/4=150
S:Vuoma-Pertin masurkka, Violan masurkka
R:masurkka
%P:VPM,VM,VPM
K:Em
% - - - - - - - - - -
P:Vuoma-Pertin Masurkka
|: "Em" (3EGB ee BB | "Am" cB AF Ac | "B"B>c BA GF | "Em" E2 (3EGB e2 |\
(3EGB ee BB | "Am" cB AF Ac | "B"B>c BA GF | "Em" E2 E4 :|
|: "Em" EG BB "Am" AA | "B" G2 F4 | Fc B3 A |\
"Em" (3GBG E4 | EG BB "Am" AA | "B" G2 F4 | Bc BA GF | "Em" E2 E4 :|
% - - - - - - - - - -
P:Violan Masurkka
|: "Em" B,>E G>B A>G | "Am" F>G A2 F2 | "B" B,>^D F>A G>F | "Em" G>A B4 |\
B,>E G>B A>G | "Am" F>G A2 F2 | "B" B,>^D F>A G>F | "Em" E2 E4 :|
|: "Em" B>A B>A B>c | "Am" A>G F2 F2 | A>G A2 B2 | "Em" G>F E2 G2 |\
B,>E G>B A>G | "Am" F>G A2 F2 | "B" B,>^D F>A G>F |[1 "Em" G>A B4 :|[2 "Em" E2 E4 ||
% - - - - - - - - - -
% %P:VPM
% |: "Em" (3EGB ee BB | "Am" cB AF Ac | "B"B>c BA GF | "Em" E2 (3EGB e2 |\
% (3EGB ee BB | "Am" cB AF Ac | "B"B>c BA GF | "Em" E2 E4 :|
% |: "Em" EG BB "Am" AA | "B" G2 F4 | Fc B3 A | "Em" (3GBG E4 |\
% EG BB "Am" AA | "B" G2 F4 | Bc BA GF | "Em" E2 E4 :|
% - - - - - - - - - -
